X:1
T:Tell Old Bill
M:3/4
L:1/8
K:Ab
 AA E3/2 E/2 AA E3| E
M:3/4
| c A- A4|
M:5/4
 AA A3/2 E/2 AA E3 A|
M:3/4
 G B- B4| AA c3/2 B/2 AA| c3/2 B/2 AB AF| A/2 B3/2 AF E A2| AG B2 c c-|\
 A- A4 z2|

